packages/core/assets/Icons/play_pause.svg

<svg viewBox="0 0 20 20" fill="none" xmlns="http://www.w3.org/2000/svg">
<path d="M5.47913 12.5834C5.20135 12.7778 4.91315 12.7952 4.61454 12.6354C4.31593 12.4757 4.16663 12.2292 4.16663 11.8959V8.10419C4.16663 7.77085 4.31593 7.52433 4.61454 7.3646C4.91315 7.20488 5.20135 7.22224 5.47913 7.41669L8.18746 9.31252C8.42357 9.47919 8.54163 9.70835 8.54163 10C8.54163 10.2917 8.42357 10.5209 8.18746 10.6875L5.47913 12.5834ZM11.6666 13.3334C11.4305 13.3334 11.2326 13.2535 11.0729 13.0938C10.9132 12.934 10.8333 12.7361 10.8333 12.5V7.50002C10.8333 7.26391 10.9132 7.06599 11.0729 6.90627C11.2326 6.74655 11.4305 6.66669 11.6666 6.66669C11.9027 6.66669 12.1007 6.74655 12.2604 6.90627C12.4201 7.06599 12.5 7.26391 12.5 7.50002V12.5C12.5 12.7361 12.4201 12.934 12.2604 13.0938C12.1007 13.2535 11.9027 13.3334 11.6666 13.3334ZM15 13.3334C14.7638 13.3334 14.5659 13.2535 14.4062 13.0938C14.2465 12.934 14.1666 12.7361 14.1666 12.5V7.50002C14.1666 7.26391 14.2465 7.06599 14.4062 6.90627C14.5659 6.74655 14.7638 6.66669 15 6.66669C15.2361 6.66669 15.434 6.74655 15.5937 6.90627C15.7534 7.06599 15.8333 7.26391 15.8333 7.50002V12.5C15.8333 12.7361 15.7534 12.934 15.5937 13.0938C15.434 13.2535 15.2361 13.3334 15 13.3334Z" fill="currentColor"/>
</svg>

<svg xmlns="http://www.w3.org/2000/svg" width="20" height="20" fill="none" viewBox="0 0 20 20">
  <path fill="#201F1F" d="M5.48 12.583a.771.771 0 0 1-.865.052.786.786 0 0 1-.448-.74v-3.79c0-.334.149-.58.448-.74a.771.771 0 0 1 .864.052l2.708 1.896a.796.796 0 0 1 .355.687c0 .292-.118.52-.355.688L5.48 12.582Zm6.187.75a.806.806 0 0 1-.594-.24.807.807 0 0 1-.24-.593v-5c0-.236.08-.434.24-.594.16-.16.357-.24.594-.24.236 0 .434.08.593.24.16.16.24.358.24.594v5c0 .236-.08.434-.24.594a.807.807 0 0 1-.593.24Zm3.333 0a.806.806 0 0 1-.594-.24.807.807 0 0 1-.24-.593v-5c0-.236.08-.434.24-.594.16-.16.358-.24.594-.24s.434.08.594.24c.16.16.24.358.24.594v5c0 .236-.08.434-.24.594a.806.806 0 0 1-.594.24Z"/>
</svg>
